X: 31693
T: Pasacorredoires 'de Mustad A Millares'
R: reel
M: 4/4
K: Gmajor
|:GABc d2d2|defg d2|cGBd c2 A2|AEAc B2 BA|
GABc d2d2|defg d2|cGBd cBAD|FGAB G2:|
|:d3B GDGB|d^cde d2Bd|c3A FDFA|cded cABc|
d3B GDGB|d^cde d2cd|e2dc B2cB|A2 d2 G2:|
GABc B2A2|ABcd e3g|d3B dcBA|GFED|
GABc B2A2|ABcd e2ge|d3B dcBA|G2F2||

